icons/src/fluent/svg/clipboard_task_24_filled.svg

<svg width="24" height="24" viewBox="0 0 24 24" fill="none" xmlns="http://www.w3.org/2000/svg">
<path d="M13.75 2H10.25C9.09205 2 8.13841 2.87472 8.01379 3.99944L6.25 4C5.00736 4 4 5.00736 4 6.25V19.75C4 20.9926 5.00736 22 6.25 22H17.75C18.9926 22 20 20.9926 20 19.75V6.25C20 5.00736 18.9926 4 17.75 4L15.9862 3.99944C15.8616 2.87472 14.9079 2 13.75 2ZM10.25 3.5H13.75C14.1642 3.5 14.5 3.83579 14.5 4.25C14.5 4.66421 14.1642 5 13.75 5H10.25C9.83579 5 9.5 4.66421 9.5 4.25C9.5 3.83579 9.83579 3.5 10.25 3.5ZM17.0303 11.0303L11.5303 16.5303C11.2374 16.8232 10.7626 16.8232 10.4697 16.5303L7.96967 14.0303C7.67678 13.7374 7.67678 13.2626 7.96967 12.9697C8.26256 12.6768 8.73744 12.6768 9.03033 12.9697L11 14.9393L15.9697 9.96967C16.2626 9.67678 16.7374 9.67678 17.0303 9.96967C17.3232 10.2626 17.3232 10.7374 17.0303 11.0303Z" fill="#212121"/>
</svg>

<svg width="24" height="24" fill="none" viewBox="0 0 24 24" xmlns="http://www.w3.org/2000/svg"><path d="M13.75 2h-3.5a2.25 2.25 0 0 0-2.236 2H6.25A2.25 2.25 0 0 0 4 6.25v13.5A2.25 2.25 0 0 0 6.25 22h11.5A2.25 2.25 0 0 0 20 19.75V6.25A2.25 2.25 0 0 0 17.75 4h-1.764a2.25 2.25 0 0 0-2.236-2Zm-3.5 1.5h3.5a.75.75 0 0 1 0 1.5h-3.5a.75.75 0 0 1 0-1.5Zm6.78 7.53-5.5 5.5a.75.75 0 0 1-1.06 0l-2.5-2.5a.75.75 0 1 1 1.06-1.06L11 14.94l4.97-4.97a.75.75 0 1 1 1.06 1.06Z" fill="#212121"/></svg>
